tenants/vtwonen/icons/channel_linkedin.svg

<svg fill="none" height="24" viewBox="0 0 24 24" width="24" xmlns="http://www.w3.org/2000/svg" xmlns:xlink="http://www.w3.org/1999/xlink"><clipPath id="a"><path d="m0 0h24v24h-24z"/></clipPath><g clip-path="url(#a)"><circle cx="12" cy="12" fill="#000" r="12"/><path d="m8 6.50075c-.0002.39782-.15842.77928-.43987 1.06044s-.66306.43901-1.06088.43881-.77928-.15842-1.06044-.43987-.43901-.66306-.43881-1.06088.15843-.77928.43987-1.06044c.28145-.28116.66306-.43901 1.06088-.43881s.77928.15843 1.06044.43987c.28116.28145.43901.66306.43881 1.06088zm.045 2.61h-3v9.38995h3zm4.74 0h-2.985v9.38995h2.955v-4.9274c0-2.745 3.5775-3 3.5775 0v4.9274h2.9625v-5.9474c0-4.62755-5.295-4.45505-6.54-2.1825z" fill="#fff"/><path clip-rule="evenodd" d="m17.0413 7.23653c.0167-.06208.0776-.33763.0943-.40273.0441-.1726.067-.33309.1339-.48146.0806-.17865.1963-.33157.3088-.48146.0822-.11355.1628-.21802.2617-.31189.0228-.0212.0426-.04391.0654-.06662.1157-.08175.2389-.162.3804-.22104.0821-.03483.1643-.06511.2495-.09993.1202-.05148.2358-.10447.3758-.14232.143-.03936.359-.03785.4975.00152.0547.01665.105.02422.1536.04542.2313.09538.3926.25435.5219.44815.0928.13929.1552.30432.216.4754.0152.04391.0167.09236.0274.14081.0076.03179.003.09235-.003.1196-.0077.0318-.0016.05754-.0122.08933-.0122.04694-.0259.10144-.0426.14686-.0259.08024-.0396.15746-.067.23619-.0593.16806-.1186.34065-.1871.49963-.1111.25435-.2145.49962-.356.72219-.0289.04693-.0502.09841-.0791.14383-.0183.02877-.0274.05905-.0441.08781-.0305.05754-.0624.1181-.0959.1726-.0243.03785-.0365.08024-.0624.11961-.0547.0863-.1034.18017-.1597.26647-.0654.09689-.1384.18622-.2084.27706-.0715.08782-.1689.162-.2495.23922-.0792.07721-.1598.15443-.2404.23316-.0502.04693-.105.09084-.1476.14383-.0167.01363-.0335.03028-.0517.04391-.0472.04693-.1004.09538-.143.14686-.0168.01514-.0335.03028-.0487.0439-.035.03331-.07.06813-.0989.10447-.0213.01968-.0441.04089-.0685.06059-.0532.0696-.1262.1226-.1825.1907-.0198.0197-.0411.0379-.0609.0561-.0259.0318-.0532.0605-.0837.0893-.0121.0106-.0258.0212-.0395.0333-.0487.0651-.0913.1151-.1583.162-.0228.0242-.0988.106-.1217.1287-.0608.0727-.0563.0802-.1141.1332-.0654.0636-.1247.1333-.1901.1953-.0183.0182-.0594.0621-.0837.0591-.0396-.0258-.067-.0666-.102-.0999-.0623-.0636-.146-.1106-.2464-.1908-.0365-.0333-.0685-.0651-.1035-.0954-.0897-.112-.2175-.1953-.3073-.3089-.0274-.0363-.07-.062-.1004-.0999-.035-.0318-.07-.0636-.1035-.0954-.0395-.0499-.0912-.0954-.1354-.1393-.0243-.0212-.0304-.0302-.0532-.0499-.0137-.01819-.0304-.04241-.0426-.05755-.0259-.03785-.067-.06814-.0959-.10599-.0943-.11809-.2008-.22407-.2951-.34217-.0167-.02119-.0441-.03936-.0624-.06056-.073-.09538-.1613-.18017-.2312-.27706-.0655-.08933-.1233-.18471-.1857-.27707-.0136-.02422-.0182-.04845-.0349-.07267-.032-.04996-.0639-.10598-.0898-.16049-.0715-.15746-.1385-.31492-.2115-.47237-.0989-.215-.2038-.4209-.2769-.66315-.0243-.08327-.038-.22256-.0289-.31643.0046-.04693-.003-.09538.0076-.13626 0-.0212 0-.04088.0015-.06207.0122-.06056.0229-.12264.0335-.18472.0502-.17108.1004-.33157.1704-.48297.0715-.15443.1719-.29069.2739-.41938.0274-.03937.0578-.07722.0912-.11053.1461-.1408.2891-.23921.5219-.29977.0639-.01817.1749-.03634.2556-.01817.0441.00908.0867.01514.1323.02422.1583.04996.2921.11507.4139.19834.213.14232.3666.3346.5066.54808.0669.09992.1415.20439.1932.31794.0578.11961.1019.2483.1476.38002.035.09387.0426.1938.07.29524" fill="#e40047" fill-rule="evenodd"/></g></svg>

<svg width="24" height="24" viewBox="0 0 24 24" fill="none" xmlns="http://www.w3.org/2000/svg">
<g clip-path="url(#clip0_2128_24092)">
<circle cx="12" cy="12" r="12" fill="black"/>
<path d="M8 6.50075C7.9998 6.89857 7.84158 7.28003 7.56013 7.56119C7.27868 7.84235 6.89707 8.0002 6.49925 8C6.10143 7.9998 5.71997 7.84158 5.43881 7.56013C5.15765 7.27868 4.9998 6.89707 5 6.49925C5.0002 6.10143 5.15843 5.71997 5.43987 5.43881C5.72132 5.15765 6.10293 4.9998 6.50075 5C6.89857 5.0002 7.28003 5.15843 7.56119 5.43987C7.84235 5.72132 8.0002 6.10293 8 6.50075ZM8.045 9.11075H5.045V18.5007H8.045V9.11075ZM12.785 9.11075H9.8V18.5007H12.755V13.5733C12.755 10.8283 16.3325 10.5733 16.3325 13.5733V18.5007H19.295V12.5533C19.295 7.92575 14 8.09825 12.755 10.3708L12.785 9.11075Z" fill="white"/>
<path fill-rule="evenodd" clip-rule="evenodd" d="M17.0413 7.23653C17.058 7.17445 17.1189 6.8989 17.1356 6.8338C17.1797 6.6612 17.2026 6.50071 17.2695 6.35234C17.3501 6.17369 17.4658 6.02077 17.5783 5.87088C17.6605 5.75733 17.7411 5.65286 17.84 5.55899C17.8628 5.53779 17.8826 5.51508 17.9054 5.49237C18.0211 5.41062 18.1443 5.33037 18.2858 5.27133C18.3679 5.2365 18.4501 5.20622 18.5353 5.1714C18.6555 5.11992 18.7711 5.06693 18.9111 5.02908C19.0541 4.98972 19.2701 4.99123 19.4086 5.0306C19.4633 5.04725 19.5136 5.05482 19.5622 5.07602C19.7935 5.1714 19.9548 5.33037 20.0841 5.52417C20.1769 5.66346 20.2393 5.82849 20.3001 5.99957C20.3153 6.04348 20.3168 6.09193 20.3275 6.14038C20.3351 6.17217 20.3305 6.23273 20.3245 6.25998C20.3168 6.29178 20.3229 6.31752 20.3123 6.34931C20.3001 6.39625 20.2864 6.45075 20.2697 6.49617C20.2438 6.57641 20.2301 6.65363 20.2027 6.73236C20.1434 6.90042 20.0841 7.07301 20.0156 7.23199C19.9045 7.48634 19.8011 7.73161 19.6596 7.95418C19.6307 8.00111 19.6094 8.05259 19.5805 8.09801C19.5622 8.12678 19.5531 8.15706 19.5364 8.18582C19.5059 8.24336 19.474 8.30392 19.4405 8.35842C19.4162 8.39627 19.404 8.43866 19.3781 8.47803C19.3234 8.56433 19.2747 8.6582 19.2184 8.7445C19.153 8.84139 19.08 8.93072 19.01 9.02156C18.9385 9.10938 18.8411 9.18356 18.7605 9.26078C18.6813 9.33799 18.6007 9.41521 18.5201 9.49394C18.4699 9.54087 18.4151 9.58478 18.3725 9.63777C18.3558 9.6514 18.339 9.66805 18.3208 9.68168C18.2736 9.72861 18.2204 9.77706 18.1778 9.82854C18.161 9.84368 18.1443 9.85882 18.1291 9.87244C18.0941 9.90575 18.0591 9.94057 18.0302 9.97691C18.0089 9.99659 17.9861 10.0178 17.9617 10.0375C17.9085 10.1071 17.8355 10.1601 17.7792 10.2282C17.7594 10.2479 17.7381 10.2661 17.7183 10.2843C17.6924 10.3161 17.6651 10.3448 17.6346 10.3736C17.6225 10.3842 17.6088 10.3948 17.5951 10.4069C17.5464 10.472 17.5038 10.522 17.4368 10.5689C17.414 10.5931 17.338 10.6749 17.3151 10.6976C17.2543 10.7703 17.2588 10.7778 17.201 10.8308C17.1356 10.8944 17.0763 10.9641 17.0109 11.0261C16.9926 11.0443 16.9515 11.0882 16.9272 11.0852C16.8876 11.0594 16.8602 11.0186 16.8252 10.9853C16.7629 10.9217 16.6792 10.8747 16.5788 10.7945C16.5423 10.7612 16.5103 10.7294 16.4753 10.6991C16.3856 10.5871 16.2578 10.5038 16.168 10.3902C16.1406 10.3539 16.098 10.3282 16.0676 10.2903C16.0326 10.2585 15.9976 10.2267 15.9641 10.1949C15.9246 10.145 15.8729 10.0995 15.8287 10.0556C15.8044 10.0344 15.7983 10.0254 15.7755 10.0057C15.7618 9.98751 15.7451 9.96329 15.7329 9.94815C15.707 9.9103 15.6659 9.88001 15.637 9.84216C15.5427 9.72407 15.4362 9.61809 15.3419 9.49999C15.3252 9.4788 15.2978 9.46063 15.2795 9.43943C15.2065 9.34405 15.1182 9.25926 15.0483 9.16237C14.9828 9.07304 14.925 8.97766 14.8626 8.8853C14.849 8.86108 14.8444 8.83685 14.8277 8.81263C14.7957 8.76267 14.7638 8.70665 14.7379 8.65214C14.6664 8.49468 14.5994 8.33722 14.5264 8.17977C14.4275 7.96477 14.3226 7.75887 14.2495 7.51662C14.2252 7.43335 14.2115 7.29406 14.2206 7.20019C14.2252 7.15326 14.2176 7.10481 14.2282 7.06393C14.2282 7.04273 14.2282 7.02305 14.2297 7.00186C14.2419 6.9413 14.2526 6.87922 14.2632 6.81714C14.3134 6.64606 14.3636 6.48557 14.4336 6.33417C14.5051 6.17974 14.6055 6.04348 14.7075 5.91479C14.7349 5.87542 14.7653 5.83757 14.7987 5.80426C14.9448 5.66346 15.0878 5.56505 15.3206 5.50449C15.3845 5.48632 15.4955 5.46815 15.5762 5.48632C15.6203 5.4954 15.6629 5.50146 15.7085 5.51054C15.8668 5.5605 16.0006 5.62561 16.1224 5.70888C16.3354 5.8512 16.489 6.04348 16.629 6.25696C16.6959 6.35688 16.7705 6.46135 16.8222 6.5749C16.88 6.69451 16.9241 6.8232 16.9698 6.95492C17.0048 7.04879 17.0124 7.14872 17.0398 7.25016" fill="#E40047"/>
</g>
<defs>
<clipPath id="clip0_2128_24092">
<rect width="24" height="24" fill="white"/>
</clipPath>
</defs>
</svg>
